;FLAVOR:Marlin
;TIME:50850
;Filament used: 24.5394m
;Layer height: 0.2
;Cura Time Estimate:  50850sec = 14hr 7min 30sec 
M117 ET 14hr 8min
;MINX:27.633
;MINY:33.367
;MINZ:0.2
;MAXX:191.172
;MAXY:195.712
;MAXZ:16
;TARGET_MACHINE.NAME:Creality Ender-3
;POSTPROCESSED
;  [DisplayInfoOnLCD]
;Generated with Cura_SteamEngine 5.9.1
M140 S50
M105
M190 S50
M104 S200
M105
M109 S200
M82 ;absolute extrusion mode
; Ender 3 Custom Start G-code
G92 E0 ; Reset Extruder
G28 ; Home all axes
G1 Z2.0 F3000 ; Move Z Axis up little to prevent scratching of Heat Bed
G1 X0.1 Y20 Z0.3 F5000.0 ; Move to start position
G1 X0.1 Y200.0 Z0.3 F1500.0 E15 ; Draw the first line
G1 X0.4 Y200.0 Z0.3 F5000.0 ; Move to side a little
G1 X0.4 Y20 Z0.3 F1500.0 E30 ; Draw the second line
G92 E0 ; Reset Extruder
G1 Z2.0 F3000 ; Move Z Axis up little to prevent scratching of Heat Bed
G1 X5 Y20 Z0.3 F5000.0 ; Move over to prevent blob squish
G92 E0
G92 E0
G1 F2700 E-5
;LAYER_COUNT:80
;LAYER:0
;TYPE:WALL-INNER
;MESH:waffle_base_plate-1.STL
M117 1/80 | ET 
G1 F2700 E2378.74717
G1 F1500 X74.889 Y85.725 E2378.75889
G1 X74.54 Y85.637 E2378.77086
G1 X74.216 Y85.489 E2378.78271
G1 X73.918 Y85.291 E2378.79461
G1 X73.665 Y85.045 E2378.80634
G1 X73.338 Y84.609 E2378.82447
G1 X73.135 Y83.922 E2378.8483
G1 X73.157 Y83.388 E2378.86607
G1 X73.27 Y82.856 E2378.88416
G1 X73.552 Y82.408 E2378.90177
G1 X73.789 Y82.137 E2378.91374
G1 X74.065 Y81.913 E2378.92557
G1 X74.371 Y81.743 E2378.93721
G1 X74.712 Y81.623 E2378.94923
G1 X75.065 Y81.561 E2378.96115
G1 X75.417 Y81.561 E2378.97286
G1 X75.771 Y81.622 E2378.98481
G1 X76.058 Y81.722 E2378.99492
G1 X76.413 Y81.908 E2379.00825
G1 X76.694 Y82.137 E2379.0203
G1 X76.93 Y82.408 E2379.03226
G1 X77.214 Y82.855 E2379.04987
G1 X77.327 Y83.391 E2379.06809
G1 X77.342 Y83.957 E2379.08692
G1 X77.189 Y84.442 E2379.10384
G1 X77.052 Y84.717 E2379.11405
G1 X76.851 Y85.001 E2379.12563
G1 X76.562 Y85.297 E2379.13939
G1 X76.264 Y85.489 E2379.15118
G1 X75.944 Y85.637 E2379.1629
G1 X75.552 Y85.73 E2379.1763
G1 X75.24 Y85.756 E2379.18672
G0 F9000 X75.213 Y86.067
G0 X75.242 Y87.124
G0 X75.24 Y87.434
G1 F1500 X75.869 Y87.382 E2379.20771
G1 X76.506 Y87.213 E2379.22963
G1 X77.081 Y86.954 E2379.2506
G1 X77.613 Y86.592 E2379.27201
G1 X78.072 Y86.153 E2379.29313
G1 X78.459 Y85.631 E2379.31474
G1 X78.741 Y85.069 E2379.33566
G1 X78.934 Y84.452 E2379.35716
G1 X79.014 Y83.815 E2379.37851
G1 X78.986 Y83.173 E2379.39988
G1 X78.852 Y82.552 E2379.42101
G1 X78.614 Y81.956 E2379.44236
G1 X78.275 Y81.41 E2379.46374
G1 X77.854 Y80.926 E2379.48507
G1 X77.355 Y80.524 E2379.50638
G1 X76.805 Y80.218 E2379.52732
G1 X76.192 Y80.003 E2379.54892
G1 X75.556 Y79.893 E2379.57039
G1 X74.928 Y79.892 E2379.59128
G1 X74.292 Y80.004 E2379.61276
G1 X73.676 Y80.218 E2379.63445
G1 X73.13 Y80.524 E2379.65526
G1 X72.63 Y80.927 E2379.67662
G1 X72.204 Y81.415 E2379.69817
G1 X71.866 Y81.957 E2379.71941
G1 X71.629 Y82.553 E2379.74075
G1 X71.494 Y83.172 E2379.76182
G1 X71.47 Y83.814 E2379.78319
G1 X71.549 Y84.453 E2379.8046
G1 X71.739 Y85.071 E2379.82611
G1 X72.021 Y85.632 E2379.84699
G1 X72.408 Y86.153 E2379.86858
G1 X72.866 Y86.591 E2379.88965
G1 X73.402 Y86.953 E2379.91117
G1 X73.978 Y87.213 E2379.93219
G1 X74.615 Y87.382 E2379.9541
G1 X75.24 Y87.434 E2379.97496
G0 F9000 X75.24 Y87.835
;TYPE:WALL-OUTER
G1 F1500 X75.937 Y87.778 E2379.99822
G1 X76.64 Y87.591 E2380.02242
G1 X77.277 Y87.304 E2380.04566
G1 X77.865 Y86.904 E2380.06931
G1 X78.373 Y86.419 E2380.09267
G1 X78.801 Y85.842 E2380.11656
G1 X79.113 Y85.22 E2380.13971
G1 X79.327 Y84.537 E2380.16351
G1 X79.415 Y83.831 E2380.18718
G1 X79.384 Y83.122 E2380.21078
G1 X79.236 Y82.435 E2380.23416
G1 X78.972 Y81.775 E2380.2578
G1 X78.598 Y81.172 E2380.2814
G1 X78.132 Y80.637 E2380.305
G1 X77.579 Y80.191 E2380.32863
G1 X76.969 Y79.852 E2380.35184
G1 X76.293 Y79.615 E2380.37566
G1 X75.59 Y79.493 E2380.39939
G1 X74.894 Y79.492 E2380.42254
G1 X74.191 Y79.615 E2380.44628
G1 X73.511 Y79.852 E2380.47023
G1 X72.905 Y80.191 E2380.49333
G1 X72.352 Y80.637 E2380.51696
G1 X71.882 Y81.176 E2380.54074
G1 X71.508 Y81.775 E2380.56423
G1 X71.245 Y82.435 E2380.58786
G1 X71.096 Y83.122 E2380.61124
G1 X71.069 Y83.831 E2380.63484
G1 X71.157 Y84.537 E2380.6585
G1 X71.367 Y85.221 E2380.6823
G1 X71.679 Y85.842 E2380.70541
G1 X72.107 Y86.419 E2380.72931
G1 X72.614 Y86.903 E2380.75262
G1 X73.206 Y87.304 E2380.7764
G1 X73.844 Y87.591 E2380.79967
G1 X74.547 Y87.778 E2380.82387
G1 X75.24 Y87.835 E2380.84699
G1 F2700 E2375.84699
G0 F9000 X75.242 Y87.124
G0 X75.161 Y86.062
G0 X75.221 Y85.356
G1 F2700 E2380.84699
G1 F1500 X74.935 Y85.327 E2380.85656
G1 X74.676 Y85.261 E2380.86545
G1 X74.41 Y85.139 E2380.87518
G1 X74.183 Y84.99 E2380.88421
G1 X73.965 Y84.781 E2380.89425
G1 X73.702 Y84.428 E2380.9089
G1 X73.541 Y83.877 E2380.92799
G1 X73.553 Y83.441 E2380.9425
G1 X73.65 Y83.009 E2380.95722
G1 X73.874 Y82.645 E2380.97144
G1 X74.065 Y82.427 E2380.98108
G1 X74.288 Y82.245 E2380.99065
G1 X74.539 Y82.106 E2381.00019
G1 X74.813 Y82.01 E2381.00985
G1 X75.096 Y81.96 E2381.01941
G1 X75.403 Y81.962 E2381.02962
G1 X75.688 Y82.015 E2381.03926
G1 X75.941 Y82.106 E2381.0482
G1 X76.206 Y82.255 E2381.05832
G1 X76.432 Y82.441 E2381.06805
G1 X76.609 Y82.648 E2381.07711
G1 X76.834 Y83.009 E2381.09126
G1 X76.927 Y83.438 E2381.10586
G1 X76.943 Y83.877 E2381.12047
G1 X76.818 Y84.292 E2381.13488
G1 X76.695 Y84.535 E2381.14394
G1 X76.518 Y84.777 E2381.15391
G1 X76.307 Y84.984 E2381.16375
G1 X76.07 Y85.139 E2381.17316
G1 X75.808 Y85.261 E2381.18278
G1 X75.528 Y85.33 E2381.19237
G1 X75.221 Y85.356 E2381.20262
G0 F9000 X75.161 Y86.062
G0 X74.592 Y85.911
G0 X73.666 Y85.478
G0 X73.824 Y85.315
;TYPE:FILL
G1 F3000 X73.41 Y86.862 E2381.25588
G0 F9000 X73.537 Y86.674
G0 X74.622 Y87.066
G0 X74.564 Y87.287
G1 F3000 X77.63 Y86.465 E2381.36146
G0 F9000 X77.474 Y86.301
G0 X75.043 Y87.108
G0 X75.024 Y87.335
G1 F3000 X71.557 Y83.868 E2381.52453
G0 F9000 X71.784 Y83.84
G0 X72.295 Y81.856
G0 X72.099 Y81.735
G1 F3000 X77.005 Y80.421 E2381.69346
G0 F9000 X76.302 Y80.127
G1 F3000 X78.782 Y82.607 E2381.81011
G0 F9000 X78.559 Y82.655
G0 X76.211 Y81.514
G0 X75.587 Y81.352
G0 X74.804 Y81.293
G0 X74.841 Y81.52
G1 F3000 X75.256 Y79.972 E2381.86342
G0 F9000 X75.256 Y80.504
G1 F2700 E2376.86342
G0 F9000 X73.501 Y82.78
G0 X73.307 Y83.41
G0 X73.322 Y83.782
G0 X73.924 Y87.38
G0 X73.649 Y88.438
G0 X66.734 Y111.649
G0 X66.371 Y112.682
G0 X67.313 Y116.254
G0 X67.285 Y116.914
G0 X67.039 Y117.525
G0 X66.686 Y117.926
G0 X65.349 Y118.913
G0 X65.376 Y118.6
;TYPE:WALL-INNER
G1 F2700 E2381.86342
G1 F1500 X64.837 Y118.558 E2381.8814
G1 X64.18 Y118.259 E2381.90541
G1 X63.799 Y117.888 E2381.92309
G1 X63.477 Y117.461 E2381.94088
G1 X63.266 Y116.77 E2381.96491
G1 X63.293 Y116.232 E2381.98283
G1 X63.407 Y115.702 E2382.00086
G1 X63.688 Y115.252 E2382.0185
G1 X63.924 Y114.983 E2382.03041
G1 X64.201 Y114.761 E2382.04221
G1 X64.469 Y114.61 E2382.05244
G1 X64.845 Y114.464 E2382.06586
G1 X65.201 Y114.409 E2382.07784
G1 X65.553 Y114.409 E2382.08955
G1 X65.91 Y114.464 E2382.10156
G1 X66.245 Y114.591 E2382.11348
G1 X66.549 Y114.756 E2382.12498
G1 X66.831 Y114.982 E2382.137
G1 X67.192 Y115.394 E2382.15522
G1 X67.457 Y116.067 E2382.17928
G1 X67.478 Y116.796 E2382.20354
G1 X67.275 Y117.463 E2382.22672
G1 X66.953 Y117.888 E2382.24446
G1 X66.562 Y118.27 E2382.26264
G1 X66.079 Y118.481 E2382.28017
G1 X65.732 Y118.575 E2382.29213
G1 X65.376 Y118.6 E2382.304
G0 F9000 X65.349 Y118.913
G0 X65.378 Y119.969
G0 X65.376 Y120.278
G1 F1500 X66.003 Y120.226 E2382.32492
G1 X66.642 Y120.06 E2382.34688
G1 X67.217 Y119.798 E2382.3679
G1 X67.747 Y119.441 E2382.38915
G1 X68.207 Y118.998 E2382.41039
G1 X68.595 Y118.475 E2382.43205
G1 X68.877 Y117.918 E2382.45282
G1 X69.07 Y117.293 E2382.47457
G1 X69.15 Y116.659 E2382.49583
G1 X69.122 Y116.017 E2382.5172
G1 X68.988 Y115.397 E2382.5383
G1 X68.75 Y114.804 E2382.55955
G1 X68.411 Y114.254 E2382.58104
G1 X67.99 Y113.774 E2382.60227
G1 X67.491 Y113.368 E2382.62367
G1 X66.941 Y113.066 E2382.64454
G1 X66.327 Y112.847 E2382.66622
G1 X65.692 Y112.736 E2382.68766
G1 X65.064 Y112.736 E2382.70855
G1 X64.429 Y112.847 E2382.72999
G1 X63.813 Y113.065 E2382.75172
G1 X63.266 Y113.372 E2382.77259
G1 X62.765 Y113.775 E2382.79397
G1 X62.341 Y114.259 E2382.81537
G1 X62.006 Y114.801 E2382.83657
G1 X61.764 Y115.398 E2382.85799
G1 X61.63 Y116.016 E2382.87902
G1 X61.607 Y116.658 E2382.90039
G1 X61.685 Y117.298 E2382.92183
G1 X61.875 Y117.915 E2382.94331
G1 X62.157 Y118.476 E2382.96419
G1 X62.545 Y118.998 E2382.98582
G1 X63.003 Y119.438 E2383.00695
G1 X63.538 Y119.798 E2383.02839
G1 X64.114 Y120.059 E2383.04943
G1 X64.75 Y120.226 E2383.0713
G1 X65.376 Y120.278 E2383.09219
G0 F9000 X65.376 Y120.679
;TYPE:WALL-OUTER
G1 F1500 X66.07 Y120.622 E2383.11535
G1 X66.776 Y120.438 E2383.13962
G1 X67.413 Y120.148 E2383.1629
G1 X68.001 Y119.752 E2383.18647
G1 X68.509 Y119.263 E2383.20993
G1 X68.937 Y118.686 E2383.23382
G1 X69.249 Y118.068 E2383.25685
G1 X69.463 Y117.377 E2383.28091
G1 X69.551 Y116.675 E2383.30444
G1 X69.52 Y115.966 E2383.32804
G1 X69.372 Y115.279 E2383.35142
G1 X69.108 Y114.623 E2383.37494
G1 X68.734 Y114.016 E2383.39865
G1 X68.268 Y113.485 E2383.42215
G1 X67.715 Y113.035 E2383.44586
G1 X67.105 Y112.7 E2383.46901
G1 X66.429 Y112.459 E2383.49288
G1 X65.726 Y112.336 E2383.51661
G1 X65.03 Y112.336 E2383.53976
G1 X64.327 Y112.459 E2383.5635
G1 X63.647 Y112.699 E2383.58748
G1 X63.041 Y113.039 E2383.61059
G1 X62.487 Y113.485 E2383.63425
G1 X62.018 Y114.02 E2383.65791
G1 X61.648 Y114.619 E2383.68133
G1 X61.38 Y115.28 E2383.70505
G1 X61.232 Y115.966 E2383.7284
G1 X61.205 Y116.675 E2383.75199
G1 X61.293 Y117.382 E2383.77569
G1 X61.503 Y118.065 E2383.79946
G1 X61.815 Y118.686 E2383.82257
G1 X62.243 Y119.263 E2383.84647
G1 X62.751 Y119.751 E2383.86989
G1 X63.342 Y120.148 E2383.89357
G1 X63.98 Y120.438 E2383.91688
G1 X64.682 Y120.622 E2383.94102
G1 X65.376 Y120.679 E2383.96418
G1 F2700 E2378.96418
G0 F9000 X65.378 Y119.969
G0 X65.297 Y118.908
G0 X65.359 Y118.2
G1 F2700 E2383.96418
G1 F1500 X64.941 Y118.162 E2383.97814
G1 X64.412 Y117.923 E2383.99745
G1 X64.098 Y117.622 E2384.01192
G1 X63.838 Y117.276 E2384.02631
G1 X63.673 Y116.721 E2384.04557
G1 X63.689 Y116.285 E2384.06008
G1 X63.786 Y115.857 E2384.07468
G1 X64.01 Y115.489 E2384.08901
G1 X64.201 Y115.271 E2384.09865
G1 X64.424 Y115.093 E2384.10814
G1 X64.663 Y114.96 E2384.11723
G1 X64.933 Y114.859 E2384.12682
G1 X65.232 Y114.808 E2384.13691
G1 X65.521 Y114.808 E2384.14652
G1 X65.791 Y114.85 E2384.15561
G1 X66.077 Y114.954 E2384.16573
G1 X66.314 Y115.084 E2384.17472
G1 X66.543 Y115.26 E2384.18433
G1 X66.843 Y115.607 E2384.19958
G1 X67.056 Y116.145 E2384.21883
G1 X67.079 Y116.721 E2384.238
G1 X66.911 Y117.275 E2384.25726
G1 X66.654 Y117.622 E2384.27162
G1 X66.333 Y117.93 E2384.28642
G1 X65.944 Y118.105 E2384.3006
G1 X65.665 Y118.178 E2384.31019
G1 X65.359 Y118.2 E2384.3204
G0 F9000 X64.895 Y118.642
;TYPE:FILL
G1 F3000 X64.509 Y120.081 E2384.36995
G0 F9000 X65.453 Y120.19
G1 F3000 X61.694 Y116.431 E2384.54676
G0 F9000 X61.814 Y115.55
G1 F3000 X63.783 Y115.022 E2384.61457
G0 F9000 X63.611 Y114.871
G0 X64.409 Y114.359
G0 X65.102 Y114.179
G0 X66.094 Y114.206
G0 X66.016 Y114.424
G1 F3000 X67.99 Y113.895 E2384.68254
G0 F9000 X67.817 Y114.046
G0 X68.527 Y115.076
G0 X68.739 Y114.991
G1 F3000 X66.875 Y113.127 E2384.77022
G0 F9000 X66.416 Y112.965
G1 F3000 X66.024 Y114.426 E2384.82053
G0 F9000 X66.201 Y113.926
G1 F2700 E2379.82053
G0 F9000 X64.286 Y114.886
G0 X63.809 Y115.343
G0 X63.513 Y115.931
G0 X63.465 Y116.302
G0 X63.315 Y119.855
G0 X62.918 Y120.907
G0 X66.266 Y122.806
G0 X47.204 Y143.804
;TYPE:WALL-INNER
G1 F2700 E2384.82053
G1 F985.2 X68.969 Y122.039 E2386.3792
G1 F983.6 X90.735 Y100.273 E2387.9405
G1 F980.4 X112.5 Y78.508 E2389.50686
G1 F978.8 X134.266 Y56.742 E2391.07584
G1 F2700 E2386.07584
G0 F9000 X46.948 Y144.43
G0 X46.7 Y145.022
;TYPE:WALL-OUTER
G1 F2700 E2391.07584
G1 F1500 X135.49 Y56.236 E2395.25215
G1 X134.055 Y56.236 E2395.29988
G1 X46.7 Y143.595 E2399.40889
G1 X46.7 Y145.022 E2399.45635
G1 F2700 E2394.45635
G0 F9000 X46.948 Y144.43
G0 X78.288 Y113.116
G0 X79.062 Y113.89
G0 X98.246 Y160.602
G0 X99.058 Y160.938
G0 X122.222 Y155.52
G0 X123.972 Y157.346
G0 X124.749 Y160.209
G0 X125.196 Y160.81
G0 X125.75 Y161.058
G0 X126.392 Y161.221
G0 X126.419 Y160.913
;TYPE:WALL-INNER
G1 F2700 E2399.45635
G1 F1500 X125.937 Y160.867 E2399.47245
G1 X125.427 Y160.635 E2399.49109
G1 X125.312 Y160.542 E2399.49601
G1 X124.971 Y160.086 E2399.51495
G1 X124.818 Y159.587 E2399.53231
G1 X124.85 Y159.085 E2399.54904
G1 X125.056 Y158.574 E2399.56736
G1 X125.165 Y158.433 E2399.57329
G1 X125.579 Y158.094 E2399.59109
G1 X126.067 Y157.924 E2399.60827
G1 X126.576 Y157.926 E2399.6252
G1 X127.076 Y158.1 E2399.64281
G1 X127.243 Y158.213 E2399.64952
G1 X127.599 Y158.614 E2399.66735
G1 X127.794 Y159.086 E2399.68434
G1 X127.814 Y159.604 E2399.70158
G1 X127.664 Y160.099 E2399.71878
G1 X127.328 Y160.542 E2399.73728
G1 X127.142 Y160.672 E2399.74482
G1 X126.748 Y160.847 E2399.75916
G1 X126.419 Y160.913 E2399.77032
G1 F2700 E2394.77032
G0 F9000 X126.392 Y161.221
G0 X126.054 Y162.53
G0 X125.871 Y163.593
G0 X125.952 Y163.791
G1 F2700 E2399.77032
G1 F1500 X126.688 Y163.792 E2399.7948
G1 X127.424 Y163.665 E2399.81964
G1 X128.136 Y163.414 E2399.84475
G1 X128.778 Y163.057 E2399.86919
G1 X129.359 Y162.585 E2399.89408
G1 X129.856 Y162.024 E2399.91901
G1 X130.245 Y161.393 E2399.94367
G1 X130.523 Y160.696 E2399.96862
G1 X130.678 Y159.972 E2399.99325
G1 X130.71 Y159.224 E2400.01815
G1 X130.619 Y158.483 E2400.04298
G1 X130.397 Y157.766 E2400.06795
G1 X130.067 Y157.112 E2400.09231
G1 X129.616 Y156.503 E2400.11752
G1 X129.082 Y155.993 E2400.14208
G1 X128.457 Y155.57 E2400.16718
G1 X127.79 Y155.268 E2400.19153
G1 X127.049 Y155.074 E2400.21701
G1 X126.32 Y155.011 E2400.24134
G1 X125.587 Y155.074 E2400.26581
G1 X124.846 Y155.268 E2400.29129
G1 X124.179 Y155.57 E2400.31564
G1 X123.554 Y155.993 E2400.34074
G1 X123.02 Y156.503 E2400.3653
G1 X122.569 Y157.113 E2400.39053
G1 X122.239 Y157.765 E2400.41484
G1 X122.021 Y158.484 E2400.43983
G1 X121.923 Y159.247 E2400.46541
G1 X122.114 Y159.485 E2400.47556
G1 X122.169 Y159.667 E2400.48189
G1 X122.168 Y160.839 E2400.52087
G1 X122.39 Y161.388 E2400.54056
G1 X122.78 Y162.021 E2400.56529
G1 X123.278 Y162.585 E2400.59032
G1 X123.858 Y163.057 E2400.61519
G1 X124.5 Y163.414 E2400.63962
G1 X125.212 Y163.665 E2400.66473
G1 X125.952 Y163.791 E2400.6897
G0 F9000 X125.918 Y164.191
;TYPE:WALL-OUTER
G1 F1500 X126.722 Y164.192 E2400.71644
G1 X127.525 Y164.053 E2400.74354
G1 X128.301 Y163.78 E2400.77091
G1 X129.003 Y163.389 E2400.79763
G1 X129.637 Y162.875 E2400.82478
G1 X130.178 Y162.264 E2400.85192
G1 X130.604 Y161.573 E2400.87892
G1 X130.907 Y160.813 E2400.90613
G1 X131.076 Y160.022 E2400.93304
G1 X131.111 Y159.208 E2400.96013
G1 X131.011 Y158.399 E2400.98725
G1 X130.769 Y157.616 E2401.0145
G1 X130.409 Y156.902 E2401.0411
G1 X129.917 Y156.237 E2401.06861
G1 X129.334 Y155.681 E2401.09541
G1 X128.653 Y155.22 E2401.12276
G1 X127.924 Y154.89 E2401.14938
G1 X127.117 Y154.678 E2401.17713
G1 X126.32 Y154.609 E2401.20373
G1 X125.519 Y154.678 E2401.23047
G1 X124.712 Y154.89 E2401.25823
G1 X123.983 Y155.22 E2401.28484
G1 X123.302 Y155.681 E2401.31219
G1 X122.719 Y156.237 E2401.33899
G1 X122.227 Y156.902 E2401.3665
G1 X121.867 Y157.615 E2401.39307
G1 X121.629 Y158.399 E2401.42032
G1 X121.521 Y159.215 E2401.4477
G1 X121.531 Y159.536 E2401.45838
G1 X121.69 Y159.577 E2401.46384
G1 X121.766 Y159.704 E2401.46876
G1 X121.768 Y160.917 E2401.50911
G1 X122.032 Y161.569 E2401.5325
G1 X122.458 Y162.26 E2401.5595
G1 X123 Y162.875 E2401.58677
G1 X123.633 Y163.389 E2401.61389
G1 X124.335 Y163.78 E2401.64061
G1 X125.111 Y164.053 E2401.66797
G1 X125.918 Y164.191 E2401.6952
G1 F2700 E2396.6952
G0 F9000 X125.939 Y163.886
G0 X126.551 Y163.611
G0 X126.551 Y162.529
G0 X126.556 Y161.205
G0 X126.435 Y160.506
G1 F2700 E2401.6952
G1 F1500 X126.058 Y160.478 E2401.70778
G1 X125.615 Y160.285 E2401.72385
G1 X125.345 Y159.922 E2401.7389
G1 X125.226 Y159.563 E2401.75148
G1 X125.242 Y159.19 E2401.76389
G1 X125.41 Y158.748 E2401.77962
